X: 76
T: Allahümme Salli Âlâ
C: Itrî
O: Turkey
F: http://compmusic.upf.edu/node/140
N: segah--salatiummiye--aksaksemaievferi--allahumme_salli--itri
N: makam= segah
N: form= salatiummiye
N: usul= aksaksemaievferi = 10/8
M: 10/8
L: 1/16
K: C _1/4B _1/4e ^f 
Q: 1/4=102
%%MIDI tuningsystem comma53
B2B4B2 B2c2 d2c2 B2d2  | z26  | c2d2c2B2d2c2d2d2d2=e2c2d2{e}dc  | 
w:  Al la hüm me  sal li  â lâ    |  |  Sey yi di nâ   *  Mu ham me din  in ne  biy *  yil  | 
z20  | B2c2 B2B2 c2d4e4de  | f2{g}fe d2d2 Bcd3cB2 c2B2  | 
w:  |  üm mi yi   Ve  â lâ   Al li  |  hi  *  *  *  ve  sah bi *  hi  *  ve sel lim    | 
|


